X: 37
T: Gen. Monroe's Lamentation
M: 3/4
L: 1/4
B: "O'Neill's 37"
N: "Moderate" "collected by J. O'Neill"
Z: "Transcribed by Norbert Paap, norbertp@bdu.uva.nl"
K:Gm
G/2-F/2 | D G> A | G F D | B A> B | c =B c |\
d g f | d2 c/2d/2 | c B> G | G F2 |
D G> A | G F D | B A> B | c =B c |\
d g f | d2 c/2d/2 | B G G | G3 ||
d g> g | g a b | a g g | f d2 |\
d g> g | g a b | a b a | g3 |
f d c | B2 A/2-B/2 | G A G | G F G/2A/2 |\
B A> B | c =B c | d G G | G2 |:|


